X: 29645
T: Northern Lasses, The
R: reel
M: 4/4
K: Gmajor
|:df|gGGG EGDG|EGDG EGAB|cBAG FGAB|cBAB cdef|
gGGG EGDG|Aaaf gfed|cBAG FGAc|BGAF G2:|
Bd|:g2 dg egdg|agbg agef|g2 dg egdg|agba g2 ga|
bgaf gfed|Bdef gedc|Bd ef gfge|1 dgba gfef:|2 dBcA G2||

